client/public/img/game/shared/particles/casings/casing_50ae.svg

<?xml version="1.0" encoding="UTF-8" standalone="no"?>
<svg
   width="15"
   height="31"
   viewBox="0 0 15 31"
   fill="none"
   version="1.1"
   id="svg3"
   xmlns="http://www.w3.org/2000/svg"
   xmlns:svg="http://www.w3.org/2000/svg">
  <defs
     id="defs3" />
  <path
     fill-rule="evenodd"
     clip-rule="evenodd"
     d="M1.53223 26.3337L1.65299 1.16699H12.903L13.0238 26.3337L11.8285 27.5754H2.72762L1.53223 26.3337ZM2.72762 28.367H1.83634V29.2004L2.09074 29.617H12.4653L12.7197 29.2004V28.367H11.8285H2.72762Z"
     fill="#E1954F"
     id="path1" />
  <path
     d="M2.72762 27.5754V28.367H11.8285V27.5754H2.72762Z"
     fill="#DA7C25"
     id="path2" />
  <path
     d="M2.72762 27.5754L1.53223 26.3337L1.65299 1.16699H12.903L13.0238 26.3337L11.8285 27.5754M2.72762 27.5754V28.367M2.72762 27.5754H11.8285M2.72762 28.367H1.83634V29.2004L2.09074 29.617H12.4653L12.7197 29.2004V28.367H11.8285M2.72762 28.367H11.8285M11.8285 28.367V27.5754"
     stroke="#57320F"
     stroke-width="2"
     stroke-miterlimit="3.99393"
     id="path3" />
</svg>

<svg xmlns="http://www.w3.org/2000/svg" width="15" height="31" fill="none"><path fill="#E1954F" fill-rule="evenodd" d="m1.532 26.334.121-25.167h11.25l.12 25.167-1.194 1.241H2.727zm1.196 2.033h-.892v.833l.255.417h10.374l.255-.417v-.833H2.728" clip-rule="evenodd"/><path fill="#DA7C25" d="M2.728 27.575v.792h9.1v-.792z"/><path stroke="#57320F" stroke-miterlimit="3.994" stroke-width="2" d="m2.728 27.575-1.196-1.241.121-25.167h11.25l.12 25.167-1.194 1.241m-9.101 0v.792m0-.792h9.1m-9.1.792h-.892v.833l.255.417h10.374l.255-.417v-.833h-.892m-9.1 0h9.1m0 0v-.792"/></svg>
